picto/customs-de.svg

<svg class="color-immutable" width="24" height="24" viewBox="0 0 24 24" fill="none" xmlns="http://www.w3.org/2000/svg"><path d="M0 22.5V1.5C0 0.675 0.675 0 1.5 0H22.5C23.325 0 24 0.675 24 1.5V22.5C24 23.325 23.325 24 22.5 24H1.5C0.675 24 0 23.325 0 22.5Z" fill="#2D327D"/><path d="M18.749 7.5H14.738V6.6C14.738 5.855 14.132 5.25 13.387 5.25H10.612C9.86702 5.25 9.26202 5.855 9.26202 6.6V7.5H5.25002C4.00802 7.5 2.99902 8.507 2.99902 9.75V18.75C2.99902 19.992 4.00802 21 5.25002 21H18.749C19.992 21 21 19.993 21 18.75V9.75C21.001 8.508 19.993 7.5 18.749 7.5ZM13.688 7.5H10.312V6.3H13.688V7.5Z" fill="white"/><path d="M9.77199 8.925C6.85299 8.925 4.48499 11.217 4.48499 14.136C4.48499 17.055 6.85299 19.5 9.77199 19.5C12.691 19.5 15.06 17.055 15.06 14.136C15.06 11.217 12.691 8.925 9.77199 8.925ZM9.77199 18.095C7.68199 18.095 5.98399 16.398 5.98399 14.307C5.98399 12.217 7.68099 10.52 9.77199 10.52C11.862 10.52 13.559 12.217 13.559 14.307C13.559 16.398 11.862 18.095 9.77199 18.095Z" fill="#EB0000"/><path d="M7.72496 14.85H11.85C12.161 14.85 12.413 14.598 12.413 14.287C12.413 13.977 12.161 13.724 11.85 13.724H7.72496C7.41396 13.724 7.16296 13.976 7.16296 14.287C7.16296 14.598 7.41396 14.85 7.72496 14.85Z" fill="black"/><path d="M9.41302 12.306V12.48L8.84502 13.159H9.43102V13.352H8.54602V13.169L9.10902 12.499H8.58502V12.306H9.41302Z" fill="black"/><path d="M9.91904 12.549C10.033 12.549 10.125 12.587 10.198 12.662C10.269 12.736 10.305 12.836 10.305 12.96C10.305 13.088 10.267 13.191 10.191 13.267C10.12 13.338 10.027 13.374 9.91304 13.374C9.79104 13.374 9.69404 13.334 9.62204 13.255C9.55304 13.18 9.51904 13.082 9.51904 12.961C9.51904 12.843 9.55204 12.746 9.61904 12.672C9.69304 12.591 9.79304 12.549 9.91904 12.549ZM9.90804 12.711C9.85304 12.711 9.80904 12.733 9.77704 12.778C9.74404 12.823 9.72804 12.884 9.72804 12.962C9.72804 13.043 9.74404 13.104 9.77704 13.147C9.81004 13.19 9.85604 13.212 9.91404 13.212C9.96804 13.212 10.011 13.192 10.042 13.153C10.078 13.109 10.096 13.045 10.096 12.962C10.096 12.884 10.08 12.823 10.049 12.779C10.015 12.734 9.96804 12.711 9.90804 12.711Z" fill="black"/><path d="M10.652 12.306V13.353H10.444V12.306H10.652Z" fill="black"/><path d="M11.03 12.306V13.353H10.822V12.306H11.03Z" fill="black"/></svg>

<svg class="color-immutable" width="24" height="24" viewBox="0 0 24 24" fill="none" xmlns="http://www.w3.org/2000/svg"><g clip-path="url(#a)"><path d="M0 22.5v-21C0 .675.675 0 1.5 0h21c.825 0 1.5.675 1.5 1.5v21c0 .825-.675 1.5-1.5 1.5h-21C.675 24 0 23.325 0 22.5Z" fill="#2D327D"/><path d="M18.749 7.5h-4.011v-.9c0-.745-.606-1.35-1.351-1.35h-2.775a1.35 1.35 0 0 0-1.35 1.35v.9H5.25a2.251 2.251 0 0 0-2.251 2.25v9A2.252 2.252 0 0 0 5.25 21h13.499A2.25 2.25 0 0 0 21 18.75v-9a2.25 2.25 0 0 0-2.251-2.25Zm-5.061 0h-3.376V6.3h3.376v1.2Z" fill="#fff"/><path d="M9.772 8.925c-2.919 0-5.287 2.292-5.287 5.211 0 2.919 2.368 5.364 5.287 5.364s5.288-2.445 5.288-5.364-2.369-5.211-5.288-5.211Zm0 9.17a3.79 3.79 0 0 1-3.788-3.788 3.79 3.79 0 0 1 3.788-3.787 3.789 3.789 0 0 1 3.787 3.787 3.79 3.79 0 0 1-3.787 3.788Z" fill="#EB0000"/><path d="M7.725 14.85h4.125a.563.563 0 1 0 0-1.126H7.725a.562.562 0 0 0 0 1.126ZM9.413 12.306v.174l-.568.679h.586v.193h-.885v-.183l.563-.67h-.524v-.193h.828ZM9.919 12.549c.114 0 .206.038.279.113a.414.414 0 0 1 .107.298.416.416 0 0 1-.114.307.377.377 0 0 1-.278.107.375.375 0 0 1-.291-.119.417.417 0 0 1-.103-.294c0-.118.033-.215.1-.289a.387.387 0 0 1 .3-.123Zm-.011.162a.152.152 0 0 0-.131.067.304.304 0 0 0-.049.184c0 .081.016.142.049.185a.164.164 0 0 0 .137.065c.054 0 .097-.02.128-.059a.296.296 0 0 0 .054-.191.313.313 0 0 0-.047-.183.167.167 0 0 0-.141-.068ZM10.652 12.306v1.047h-.208v-1.047h.208ZM11.03 12.306v1.047h-.208v-1.047h.208Z" fill="#000"/></g><defs><clipPath id="a"><path fill="#fff" d="M0 0h24v24H0z"/></clipPath></defs></svg>
